Default.style/dentist.svg

<?xml version="1.0" encoding="UTF-8" standalone="no"?>
<svg width="21px" height="32px" viewBox="0 0 21 32" version="1.1" xmlns="http://www.w3.org/2000/svg" xmlns:xlink="http://www.w3.org/1999/xlink" xmlns:sketch="http://www.bohemiancoding.com/sketch/ns">
    <!-- Generator: Sketch 3.2.2 (9983) - http://www.bohemiancoding.com/sketch -->
    <title>dental</title>
    <desc>Created with Sketch.</desc>
    <defs></defs>
    <g id="p" stroke="none" stroke-width="1" fill="none" fill-rule="evenodd" sketch:type="MSPage">
        <g id="dental" sketch:type="MSLayerGroup" fill="#888888">
            <path d="M20.9803993,7.63718918 C20.8513927,10.6822908 18.6032782,13.3357651 18.1702562,15.2499432 C17.7372341,17.1641212 18.4312695,19.0782992 18.8172891,21.1223536 C19.208309,23.1674071 19.4653221,26.8648877 19.0353002,29.1726911 C18.6022782,31.4784964 17.5222232,32 17.5222232,32 C17.5222232,32 16.7441836,31.7812083 16.4401681,30.6932438 C16.1391528,29.6062784 16.1391528,28.214603 16.0081461,26.5591787 C15.8791395,24.9077506 14.9710933,22.4710699 14.0650472,20.6877673 C13.1800021,18.952419 11.8069322,17.7125991 10.4998656,17.64866 C9.19079898,17.7135982 7.81772906,18.952419 6.9346841,20.6877673 C6.02763791,22.4710699 5.11959168,24.9077506 4.99058511,26.5591787 C4.86057849,28.2116059 4.86057849,29.6062784 4.55756306,30.6932438 C4.25554768,31.7812083 3.47750807,32 3.47750807,32 C3.47750807,32 2.39645302,31.4784964 1.96443102,29.1726911 C1.53240903,26.8648877 1.79142222,23.1674071 2.18044202,21.1223536 C2.56946183,19.0782992 3.26149707,17.1641212 2.82847502,15.2499432 C2.39645302,13.3357651 0.149338604,10.6822908 0.0193319845,7.63718918 C-0.109674584,4.59108854 0.408351792,2.4161587 1.53240903,1.3291933 C2.65646626,0.241228858 3.69351907,-0.367192031 5.63861811,0.241228858 C7.25570044,0.74774674 11.8709354,2.55802367 12.9999929,2.99660621 C14.0920485,3.42120207 16.0001457,3.99665434 16.0001457,3.99665434 C16.0001457,3.99665434 16.3021611,2.45212447 12.7329793,1.22828935 C13.5160192,0.928574623 14.3500617,0.557927415 15.3601131,0.241228858 C17.3052121,-0.367192031 18.3422649,0.241228858 19.4653221,1.3291933 C20.5923795,2.4161587 21.1104059,4.59108854 20.9803993,7.63718918 L20.9803993,7.63718918 Z" id="Shape" sketch:type="MSShapeGroup"></path>
        </g>
    </g>
</svg>

<svg width="21" height="32" xmlns="http://www.w3.org/2000/svg"><path d="M20.98 7.637c-.129 3.045-2.377 5.699-2.81 7.613-.433 1.914.261 3.828.647 5.872.391 2.045.648 5.743.218 8.05C18.602 31.479 17.522 32 17.522 32s-.778-.219-1.082-1.307c-.3-1.087-.3-2.478-.432-4.134-.129-1.651-1.037-4.088-1.943-5.871-.885-1.736-2.258-2.975-3.565-3.04-1.31.066-2.682 1.304-3.565 3.04-.907 1.783-1.815 4.22-1.944 5.871-.13 1.653-.13 3.047-.433 4.134C4.256 31.781 3.478 32 3.478 32s-1.082-.522-1.514-2.827c-.432-2.308-.173-6.006.216-8.05.39-2.045 1.081-3.959.648-5.873C2.396 13.336.15 10.682.02 7.637-.11 4.591.41 2.417 1.532 1.33 2.656.241 3.694-.367 5.64.241 7.256.748 11.87 2.558 13 2.997c1.092.424 3 1 3 1s.302-1.545-3.267-2.769c.783-.3 1.617-.67 2.627-.987 1.945-.608 2.982 0 4.105 1.088 1.127 1.087 1.645 3.262 1.515 6.308Z" fill="#888" fill-rule="evenodd"/></svg>
